austria/municipalities/70603.svg

<?xml version="1.0" encoding="UTF-8"?>
<!DOCTYPE svg PUBLIC "-//W3C//DTD SVG 1.1//EN" "http://www.w3.org/Graphics/SVG/1.1/DTD/svg11.dtd">
<svg xmlns="http://www.w3.org/2000/svg" version="1.1" width="166px" height="192px" style="shape-rendering:geometricPrecision; text-rendering:geometricPrecision; image-rendering:optimizeQuality; fill-rule:evenodd; clip-rule:evenodd" xmlns:xlink="http://www.w3.org/1999/xlink">
<g><path style="opacity:1" fill="#060402" d="M -0.5,-0.5 C 54.8333,-0.5 110.167,-0.5 165.5,-0.5C 165.5,39.1667 165.5,78.8333 165.5,118.5C 157.509,159.158 133.176,183.491 92.5,191.5C 85.8333,191.5 79.1667,191.5 72.5,191.5C 30.9244,183.258 6.59106,158.258 -0.5,116.5C -0.5,77.5 -0.5,38.5 -0.5,-0.5 Z"/></g>
<g><path style="opacity:1" fill="#e6a51c" d="M 82.5,98.5 C 82.5,66.8333 82.5,35.1667 82.5,3.5C 108.833,3.5 135.167,3.5 161.5,3.5C 161.5,35.1667 161.5,66.8333 161.5,98.5C 135.167,98.5 108.833,98.5 82.5,98.5 Z"/></g>
<g><path style="opacity:1" fill="#e3a21c" d="M 45.5,21.5 C 47.2766,24.5046 48.2766,27.8379 48.5,31.5C 49.552,31.6495 50.552,31.4828 51.5,31C 52.9691,27.1641 55.6357,25.4975 59.5,26C 58.1007,27.0616 57.1007,28.395 56.5,30C 57.2748,32.2703 57.6081,34.4369 57.5,36.5C 60.7131,35.5731 63.8797,34.5731 67,33.5C 65.5339,37.232 63.3672,40.732 60.5,44C 63.2017,44.6066 65.8684,44.4399 68.5,43.5C 70.1073,43.637 71.4406,44.3036 72.5,45.5C 69.2234,47.4392 66.2234,49.7725 63.5,52.5C 66.0217,54.856 68.6884,57.0227 71.5,59C 67.789,59.1747 64.1224,59.6747 60.5,60.5C 62.3821,63.2133 64.0487,66.0467 65.5,69C 64.5213,72.3087 63.5213,72.3087 62.5,69C 59.3036,68.6042 56.4703,67.4375 54,65.5C 54.5184,69.4247 54.5184,73.4247 54,77.5C 51.6667,74.8333 49.3333,72.1667 47,69.5C 45.1335,71.8082 44.1335,74.4749 44,77.5C 43.3109,78.3567 42.4776,79.0233 41.5,79.5C 41.1203,77.9793 40.9536,76.3126 41,74.5C 39.2518,72.8648 38.0851,70.8648 37.5,68.5C 34.7587,70.9528 31.9254,73.2861 29,75.5C 29.3759,71.5593 29.8759,67.5593 30.5,63.5C 27.7693,64.6069 24.936,65.6069 22,66.5C 21.1667,66.1667 20.3333,65.8333 19.5,65.5C 21.7654,62.9175 23.7654,60.0841 25.5,57C 21.7487,56.2508 18.082,55.2508 14.5,54C 18.3267,52.254 21.9934,50.254 25.5,48C 23.3651,46.6189 21.0318,45.6189 18.5,45C 17.6433,44.3109 16.9767,43.4776 16.5,42.5C 19.6347,41.9996 22.9681,41.333 26.5,40.5C 25.8662,37.0626 24.5328,33.8959 22.5,31C 25.7907,31.5444 28.9574,32.7111 32,34.5C 32.0791,30.6423 32.7458,26.9756 34,23.5C 34.3333,24.5 34.6667,25.5 35,26.5C 37.1584,27.8259 38.9918,29.4925 40.5,31.5C 42.5495,28.347 44.2162,25.0136 45.5,21.5 Z"/></g>
<g><path style="opacity:1" fill="#e7a51c" d="M 82.5,98.5 C 82.5,128.167 82.5,157.833 82.5,187.5C 43.373,185.518 17.873,165.851 6,128.5C 4.01556,118.599 3.18222,108.599 3.5,98.5C 29.8333,98.5 56.1667,98.5 82.5,98.5 Z"/></g>
<g><path style="opacity:1" fill="#7c5b1f" d="M 139.5,106.5 C 139.461,105.244 139.961,104.244 141,103.5C 141.585,104.998 141.085,105.998 139.5,106.5 Z"/></g>
<g><path style="opacity:1" fill="#634a1f" d="M 110.5,116.5 C 110.167,116.5 109.833,116.5 109.5,116.5C 108.56,112.537 108.393,108.537 109,104.5C 109.828,108.466 110.328,112.466 110.5,116.5 Z"/></g>
<g><path style="opacity:1" fill="#78591f" d="M 93.5,107.5 C 95.4211,110.856 96.2544,114.523 96,118.5C 95.0255,116.122 94.3589,116.456 94,119.5C 93.0087,117.553 92.6753,115.553 93,113.5C 93.763,116.063 94.263,116.063 94.5,113.5C 93.8444,111.547 93.5111,109.547 93.5,107.5 Z"/></g>
<g><path style="opacity:1" fill="#503c1c" d="M 139.5,106.5 C 138.331,109.511 136.664,112.178 134.5,114.5C 133.313,116.072 132.313,117.739 131.5,119.5C 131.5,118.833 131.5,118.167 131.5,117.5C 131.5,116.833 131.5,116.167 131.5,115.5C 132.64,113.22 133.807,110.886 135,108.5C 136.629,108.836 138.129,108.17 139.5,106.5 Z"/></g>
<g><path style="opacity:1" fill="#775922" d="M 131.5,115.5 C 131.5,116.167 131.5,116.833 131.5,117.5C 130.833,118.167 130.167,118.833 129.5,119.5C 127.132,121.956 126.132,124.956 126.5,128.5C 125.833,127.5 125.167,126.5 124.5,125.5C 126.048,121.402 127.881,117.402 130,113.5C 130.278,114.416 130.778,115.082 131.5,115.5 Z"/></g>
<g><path style="opacity:1" fill="#fcfcfc" d="M -0.5,116.5 C 6.59106,158.258 30.9244,183.258 72.5,191.5C 48.1667,191.5 23.8333,191.5 -0.5,191.5C -0.5,166.5 -0.5,141.5 -0.5,116.5 Z"/></g>
<g><path style="opacity:1" fill="#fcfcfc" d="M 165.5,118.5 C 165.5,142.833 165.5,167.167 165.5,191.5C 141.167,191.5 116.833,191.5 92.5,191.5C 133.176,183.491 157.509,159.158 165.5,118.5 Z"/></g>
<g><path style="opacity:1" fill="#846223" d="M 96.5,123.5 C 97.1667,123.5 97.5,123.833 97.5,124.5C 96.7784,124.918 96.2784,125.584 96,126.5C 95.0255,124.122 94.3589,124.456 94,127.5C 93.0087,125.553 92.6753,123.553 93,121.5C 93.6667,124.167 94.3333,124.167 95,121.5C 95.2784,122.416 95.7784,123.082 96.5,123.5 Z"/></g>
<g><path style="opacity:1" fill="#19140b" d="M 131.5,117.5 C 131.5,118.167 131.5,118.833 131.5,119.5C 132.059,121.679 132.726,123.846 133.5,126C 133.37,127.059 132.87,127.892 132,128.5C 131.605,125.348 130.772,122.348 129.5,119.5C 130.167,118.833 130.833,118.167 131.5,117.5 Z"/></g>
<g><path style="opacity:1" fill="#dd9e1e" d="M 109.5,116.5 C 109.833,116.5 110.167,116.5 110.5,116.5C 110.758,120.372 110.091,124.039 108.5,127.5C 109.583,127.461 110.583,127.127 111.5,126.5C 112.854,130.021 112.52,133.354 110.5,136.5C 111.167,136.5 111.833,136.5 112.5,136.5C 113.756,138.726 113.756,141.059 112.5,143.5C 111.594,144.965 110.261,145.965 108.5,146.5C 107.386,147.723 107.219,149.056 108,150.5C 109.352,148.251 111.185,146.584 113.5,145.5C 113.833,145.5 114.167,145.5 114.5,145.5C 115.204,151.602 112.704,155.602 107,157.5C 107.031,166.787 105.531,175.787 102.5,184.5C 102.167,184.167 101.833,183.833 101.5,183.5C 104.242,174.713 105.575,165.713 105.5,156.5C 100.249,155.362 97.9157,152.028 98.5,146.5C 101.37,147.433 103.704,149.1 105.5,151.5C 107.203,147.684 105.87,145.85 101.5,146C 99.5313,144.5 98.198,142.667 97.5,140.5C 97.5,139.5 97.5,138.5 97.5,137.5C 97.8333,137.5 98.1667,137.5 98.5,137.5C 101.562,137.841 103.728,139.508 105,142.5C 105.494,140.866 105.66,139.199 105.5,137.5C 100.944,137.899 98.2776,135.899 97.5,131.5C 97.6716,130.508 97.3382,129.842 96.5,129.5C 96.369,128.761 96.5357,128.094 97,127.5C 97.6708,128.252 98.5041,128.586 99.5,128.5C 100.875,130.07 102.541,130.903 104.5,131C 103.305,129.148 101.638,127.981 99.5,127.5C 98.0937,127.027 97.427,126.027 97.5,124.5C 97.5,123.833 97.1667,123.5 96.5,123.5C 96.5,122.5 96.5,121.5 96.5,120.5C 100.597,120.469 103.097,122.469 104,126.5C 104.573,122.345 106.406,119.012 109.5,116.5 Z"/></g>
<g><path style="opacity:1" fill="#1b150d" d="M 124.5,125.5 C 125.167,126.5 125.833,127.5 126.5,128.5C 126.877,130.258 127.544,131.925 128.5,133.5C 128.192,134.308 127.692,134.975 127,135.5C 126.76,133.148 125.927,131.148 124.5,129.5C 124.5,128.167 124.5,126.833 124.5,125.5 Z"/></g>
<g><path style="opacity:1" fill="#1d170d" d="M 142.5,126.5 C 142.167,127.167 141.833,127.833 141.5,128.5C 139.076,128.808 136.743,128.474 134.5,127.5C 137.066,127.746 139.732,127.413 142.5,126.5 Z"/></g>
<g><path style="opacity:1" fill="#674e22" d="M 99.5,127.5 C 101.638,127.981 103.305,129.148 104.5,131C 102.541,130.903 100.875,130.07 99.5,128.5C 99.5,128.167 99.5,127.833 99.5,127.5 Z"/></g>
<g><path style="opacity:1" fill="#130f07" d="M 108.5,127.5 C 107.68,129.14 106.847,130.807 106,132.5C 104.923,129.738 105.756,128.072 108.5,127.5 Z"/></g>
<g><path style="opacity:1" fill="#816023" d="M 124.5,125.5 C 124.5,126.833 124.5,128.167 124.5,129.5C 123.883,129.389 123.383,129.056 123,128.5C 121.798,130.677 121.298,133.011 121.5,135.5C 120.833,135.167 120.167,134.833 119.5,134.5C 119.167,134.5 118.833,134.5 118.5,134.5C 119.953,131.647 121.119,128.647 122,125.5C 122.333,126.167 122.667,126.833 123,127.5C 123.278,126.584 123.778,125.918 124.5,125.5 Z"/></g>
<g><path style="opacity:1" fill="#da9c1e" d="M 134.5,114.5 C 136.11,117.189 136.943,120.189 137,123.5C 139.565,121.821 142.398,121.154 145.5,121.5C 144.925,123.411 143.925,125.078 142.5,126.5C 139.732,127.413 137.066,127.746 134.5,127.5C 136.743,128.474 139.076,128.808 141.5,128.5C 140.925,130.411 139.925,132.078 138.5,133.5C 136.007,134.747 133.507,134.747 131,133.5C 126.3,137.838 126.967,138.505 133,135.5C 134.138,135.989 135.305,136.322 136.5,136.5C 135.925,138.411 134.925,140.078 133.5,141.5C 131.119,142.42 128.786,142.42 126.5,141.5C 124.646,142.176 124.313,143.176 125.5,144.5C 128.197,143.831 130.863,143.164 133.5,142.5C 131.129,148.187 126.796,151.187 120.5,151.5C 115.585,161.409 111.752,171.742 109,182.5C 110.405,171.067 113.905,160.233 119.5,150C 117.96,147.917 116.96,145.584 116.5,143C 117.275,140.178 117.942,137.344 118.5,134.5C 118.833,134.5 119.167,134.5 119.5,134.5C 119.929,137.363 120.929,140.029 122.5,142.5C 122.833,142 123.167,141.5 123.5,141C 122.68,139.2 122.014,137.366 121.5,135.5C 121.298,133.011 121.798,130.677 123,128.5C 123.383,129.056 123.883,129.389 124.5,129.5C 125.927,131.148 126.76,133.148 127,135.5C 127.692,134.975 128.192,134.308 128.5,133.5C 127.544,131.925 126.877,130.258 126.5,128.5C 126.132,124.956 127.132,121.956 129.5,119.5C 130.772,122.348 131.605,125.348 132,128.5C 132.87,127.892 133.37,127.059 133.5,126C 132.726,123.846 132.059,121.679 131.5,119.5C 132.313,117.739 133.313,116.072 134.5,114.5 Z"/></g>
<g><path style="opacity:1" fill="#816026" d="M 96.5,129.5 C 97.3382,129.842 97.6716,130.508 97.5,131.5C 96.7784,131.918 96.2784,132.584 96,133.5C 95.3333,130.833 94.6667,130.833 94,133.5C 93.6258,132.584 93.1258,131.75 92.5,131C 93.6667,130.5 94.5,129.667 95,128.5C 95.3333,129.167 95.6667,129.833 96,130.5C 96.3988,130.272 96.5654,129.938 96.5,129.5 Z"/></g>
<g><path style="opacity:1" fill="#6c501e" d="M 133.5,142.5 C 133.5,142.167 133.5,141.833 133.5,141.5C 134.925,140.078 135.925,138.411 136.5,136.5C 137.167,135.5 137.833,134.5 138.5,133.5C 139.925,132.078 140.925,130.411 141.5,128.5C 141.833,127.833 142.167,127.167 142.5,126.5C 143.925,125.078 144.925,123.411 145.5,121.5C 147.419,118.681 149.585,116.014 152,113.5C 152.167,113.833 152.333,114.167 152.5,114.5C 151.855,115.732 151.689,117.065 152,118.5C 149.982,120.35 148.149,122.35 146.5,124.5C 147.326,125.451 147.492,126.451 147,127.5C 143.672,133.025 139.172,138.025 133.5,142.5 Z"/></g>
<g><path style="opacity:1" fill="#201a0f" d="M 138.5,133.5 C 137.833,134.5 137.167,135.5 136.5,136.5C 135.305,136.322 134.138,135.989 133,135.5C 126.967,138.505 126.3,137.838 131,133.5C 133.507,134.747 136.007,134.747 138.5,133.5 Z"/></g>
<g><path style="opacity:1" fill="#1b160e" d="M 119.5,134.5 C 120.167,134.833 120.833,135.167 121.5,135.5C 122.014,137.366 122.68,139.2 123.5,141C 123.167,141.5 122.833,142 122.5,142.5C 120.929,140.029 119.929,137.363 119.5,134.5 Z"/></g>
<g><path style="opacity:1" fill="#836020" d="M 98.5,137.5 C 98.1667,137.5 97.8333,137.5 97.5,137.5C 96.7784,137.918 96.2784,138.584 96,139.5C 94.8129,137.956 94.4795,136.289 95,134.5C 95.6667,137.167 96.3333,137.167 97,134.5C 97.5133,135.527 98.0133,136.527 98.5,137.5 Z"/></g>
<g><path style="opacity:1" fill="#251e13" d="M 110.5,136.5 C 109.343,138.138 108.176,139.804 107,141.5C 106.187,138.461 107.354,136.794 110.5,136.5 Z"/></g>
<g><path style="opacity:1" fill="#100c07" d="M 133.5,141.5 C 133.5,141.833 133.5,142.167 133.5,142.5C 130.863,143.164 128.197,143.831 125.5,144.5C 124.313,143.176 124.646,142.176 126.5,141.5C 128.786,142.42 131.119,142.42 133.5,141.5 Z"/></g>
<g><path style="opacity:1" fill="#8a6622" d="M 114.5,145.5 C 114.167,145.5 113.833,145.5 113.5,145.5C 113.672,144.508 113.338,143.842 112.5,143.5C 113.756,141.059 113.756,138.726 112.5,136.5C 113.291,130.581 113.791,124.581 114,118.5C 114.297,125.684 114.797,132.85 115.5,140C 115.304,141.878 114.971,143.712 114.5,145.5 Z"/></g>
<g><path style="opacity:1" fill="#161109" d="M 112.5,143.5 C 113.338,143.842 113.672,144.508 113.5,145.5C 111.185,146.584 109.352,148.251 108,150.5C 107.219,149.056 107.386,147.723 108.5,146.5C 110.261,145.965 111.594,144.965 112.5,143.5 Z"/></g>
<g><path style="opacity:1" fill="#3b2d16" d="M 97.5,140.5 C 98.198,142.667 99.5313,144.5 101.5,146C 105.87,145.85 107.203,147.684 105.5,151.5C 103.704,149.1 101.37,147.433 98.5,146.5C 96.8489,144.598 96.5155,142.598 97.5,140.5 Z"/></g>
</svg>

<svg xmlns="http://www.w3.org/2000/svg" width="166" height="192" style="shape-rendering:geometricPrecision;text-rendering:geometricPrecision;image-rendering:optimizeQuality;fill-rule:evenodd;clip-rule:evenodd"><path style="opacity:1" fill="#060402" d="M-.5-.5h166v119c-7.991 40.658-32.324 64.991-73 73h-20c-41.576-8.242-65.909-33.242-73-75V-.5z"/><path style="opacity:1" fill="#e6a51c" d="M82.5 98.5v-95h79v95h-79z"/><path style="opacity:1" fill="#e3a21c" d="M45.5 21.5c1.777 3.005 2.777 6.338 3 10a4.932 4.932 0 0 0 3-.5c1.47-3.836 4.136-5.503 8-5-1.4 1.062-2.4 2.395-3 4 .775 2.27 1.108 4.437 1 6.5 3.213-.927 6.38-1.927 9.5-3-1.466 3.732-3.633 7.232-6.5 10.5 2.702.607 5.368.44 8-.5 1.607.137 2.94.804 4 2a45.23 45.23 0 0 0-9 7 74.381 74.381 0 0 0 8 6.5 62.692 62.692 0 0 0-11 1.5 65.845 65.845 0 0 1 5 8.5c-.979 3.309-1.979 3.309-3 0-3.196-.396-6.03-1.563-8.5-3.5.518 3.925.518 7.925 0 12l-7-8c-1.867 2.308-2.867 4.975-3 8a7.253 7.253 0 0 1-2.5 2c-.38-1.52-.546-3.187-.5-5-1.748-1.635-2.915-3.635-3.5-6a134.132 134.132 0 0 1-8.5 7c.376-3.94.876-7.94 1.5-12a100.371 100.371 0 0 1-8.5 3l-2.5-1a50.047 50.047 0 0 0 6-8.5 82.096 82.096 0 0 1-11-3 87.443 87.443 0 0 0 11-6 22.721 22.721 0 0 0-7-3 7.253 7.253 0 0 1-2-2.5c3.135-.5 6.468-1.167 10-2-.634-3.437-1.967-6.604-4-9.5 3.29.544 6.457 1.711 9.5 3.5.08-3.858.746-7.524 2-11l1 3a19.733 19.733 0 0 1 5.5 5 49.402 49.402 0 0 0 5-10z"/><path style="opacity:1" fill="#e7a51c" d="M82.5 98.5v89c-39.127-1.982-64.627-21.649-76.5-59a131.165 131.165 0 0 1-2.5-30h79z"/><path style="opacity:1" fill="#7c5b1f" d="M139.5 106.5c-.039-1.256.461-2.256 1.5-3 .585 1.498.085 2.498-1.5 3z"/><path style="opacity:1" fill="#634a1f" d="M110.5 116.5h-1a31.337 31.337 0 0 1-.5-12 74.058 74.058 0 0 1 1.5 12z"/><path style="opacity:1" fill="#78591f" d="M93.5 107.5c1.921 3.356 2.754 7.023 2.5 11-.975-2.378-1.641-2.044-2 1-.991-1.947-1.325-3.947-1-6 .763 2.563 1.263 2.563 1.5 0a19.062 19.062 0 0 1-1-6z"/><path style="opacity:1" fill="#503c1c" d="M139.5 106.5a24.766 24.766 0 0 1-5 8 27.195 27.195 0 0 0-3 5v-4l3.5-7c1.629.336 3.129-.33 4.5-2z"/><path style="opacity:1" fill="#775922" d="M131.5 115.5v2l-2 2c-2.368 2.456-3.368 5.456-3 9l-2-3a96.798 96.798 0 0 1 5.5-12c.278.916.778 1.582 1.5 2z"/><path style="opacity:1" fill="#fcfcfc" d="M-.5 116.5c7.091 41.758 31.424 66.758 73 75h-73v-75zM165.5 118.5v73h-73c40.676-8.009 65.009-32.342 73-73z"/><path style="opacity:1" fill="#846223" d="M96.5 123.5c.667 0 1 .333 1 1-.722.418-1.222 1.084-1.5 2-.975-2.378-1.641-2.044-2 1-.991-1.947-1.325-3.947-1-6 .667 2.667 1.333 2.667 2 0 .278.916.778 1.582 1.5 2z"/><path style="opacity:1" fill="#19140b" d="M131.5 117.5v2a72.47 72.47 0 0 0 2 6.5c-.13 1.059-.63 1.892-1.5 2.5a31.568 31.568 0 0 0-2.5-9l2-2z"/><path style="opacity:1" fill="#dd9e1e" d="M109.5 116.5h1c.258 3.872-.409 7.539-2 11a5.576 5.576 0 0 0 3-1c1.354 3.521 1.02 6.854-1 10h2c1.256 2.226 1.256 4.559 0 7-.906 1.465-2.239 2.465-4 3-1.114 1.223-1.281 2.556-.5 4 1.352-2.249 3.185-3.916 5.5-5h1c.704 6.102-1.796 10.102-7.5 12 .031 9.287-1.469 18.287-4.5 27l-1-1a87.699 87.699 0 0 0 4-27c-5.251-1.138-7.584-4.472-7-10 2.87.933 5.204 2.6 7 5 1.703-3.816.37-5.65-4-5.5-1.969-1.5-3.302-3.333-4-5.5v-3h1c3.062.341 5.228 2.008 6.5 5a12.93 12.93 0 0 0 .5-5c-4.556.399-7.222-1.601-8-6 .172-.992-.162-1.658-1-2a2.427 2.427 0 0 1 .5-2c.67.752 1.504 1.086 2.5 1 1.375 1.57 3.041 2.403 5 2.5-1.195-1.852-2.862-3.019-5-3.5-1.406-.473-2.073-1.473-2-3 0-.667-.333-1-1-1v-3c4.097-.031 6.597 1.969 7.5 6 .573-4.155 2.406-7.488 5.5-10z"/><path style="opacity:1" fill="#1b150d" d="m124.5 125.5 2 3a16.076 16.076 0 0 0 2 5 4.457 4.457 0 0 1-1.5 2c-.24-2.352-1.073-4.352-2.5-6v-4z"/><path style="opacity:1" fill="#1d170d" d="m142.5 126.5-1 2a13.116 13.116 0 0 1-7-1c2.566.246 5.232-.087 8-1z"/><path style="opacity:1" fill="#674e22" d="M99.5 127.5c2.138.481 3.805 1.648 5 3.5-1.959-.097-3.625-.93-5-2.5v-1z"/><path style="opacity:1" fill="#130f07" d="m108.5 127.5-2.5 5c-1.077-2.762-.244-4.428 2.5-5z"/><path style="opacity:1" fill="#816023" d="M124.5 125.5v4c-.617-.111-1.117-.444-1.5-1-1.202 2.177-1.702 4.511-1.5 7l-2-1h-1a48.712 48.712 0 0 0 3.5-9l1 2c.278-.916.778-1.582 1.5-2z"/><path style="opacity:1" fill="#da9c1e" d="M134.5 114.5c1.61 2.689 2.443 5.689 2.5 9 2.565-1.679 5.398-2.346 8.5-2a11.743 11.743 0 0 1-3 5c-2.768.913-5.434 1.246-8 1a13.116 13.116 0 0 0 7 1 11.743 11.743 0 0 1-3 5c-2.493 1.247-4.993 1.247-7.5 0-4.7 4.338-4.033 5.005 2 2 1.138.489 2.305.822 3.5 1a11.743 11.743 0 0 1-3 5c-2.381.92-4.714.92-7 0-1.854.676-2.187 1.676-1 3a2336.36 2336.36 0 0 0 8-2c-2.371 5.687-6.704 8.687-13 9a157.292 157.292 0 0 0-11.5 31c1.405-11.433 4.905-22.267 10.5-32.5a16.469 16.469 0 0 1-3-7 117.562 117.562 0 0 0 2-8.5h1a20.387 20.387 0 0 0 3 8l1-1.5a36.87 36.87 0 0 1-2-5.5c-.202-2.489.298-4.823 1.5-7 .383.556.883.889 1.5 1 1.427 1.648 2.26 3.648 2.5 6a4.457 4.457 0 0 0 1.5-2 16.076 16.076 0 0 1-2-5c-.368-3.544.632-6.544 3-9a31.568 31.568 0 0 1 2.5 9c.87-.608 1.37-1.441 1.5-2.5a72.47 72.47 0 0 1-2-6.5 27.195 27.195 0 0 1 3-5z"/><path style="opacity:1" fill="#816026" d="M96.5 129.5c.838.342 1.172 1.008 1 2-.722.418-1.222 1.084-1.5 2-.667-2.667-1.333-2.667-2 0a9.465 9.465 0 0 0-1.5-2.5c1.167-.5 2-1.333 2.5-2.5l1 2c.399-.228.565-.562.5-1z"/><path style="opacity:1" fill="#6c501e" d="M133.5 142.5v-1a11.743 11.743 0 0 0 3-5l2-3a11.743 11.743 0 0 0 3-5l1-2a11.743 11.743 0 0 0 3-5 61.457 61.457 0 0 1 6.5-8l.5 1c-.645 1.232-.811 2.565-.5 4a46.607 46.607 0 0 0-5.5 6c.826.951.992 1.951.5 3-3.328 5.525-7.828 10.525-13.5 15z"/><path style="opacity:1" fill="#201a0f" d="m138.5 133.5-2 3a14.093 14.093 0 0 1-3.5-1c-6.033 3.005-6.7 2.338-2-2 2.507 1.247 5.007 1.247 7.5 0z"/><path style="opacity:1" fill="#1b160e" d="m119.5 134.5 2 1a36.87 36.87 0 0 0 2 5.5l-1 1.5a20.387 20.387 0 0 1-3-8z"/><path style="opacity:1" fill="#836020" d="M98.5 137.5h-1c-.722.418-1.222 1.084-1.5 2-1.187-1.544-1.52-3.211-1-5 .667 2.667 1.333 2.667 2 0l1.5 3z"/><path style="opacity:1" fill="#251e13" d="M110.5 136.5a701.656 701.656 0 0 0-3.5 5c-.813-3.039.354-4.706 3.5-5z"/><path style="opacity:1" fill="#100c07" d="M133.5 141.5v1a2336.36 2336.36 0 0 1-8 2c-1.187-1.324-.854-2.324 1-3 2.286.92 4.619.92 7 0z"/><path style="opacity:1" fill="#8a6622" d="M114.5 145.5h-1c.172-.992-.162-1.658-1-2 1.256-2.441 1.256-4.774 0-7a183.36 183.36 0 0 0 1.5-18c.297 7.184.797 14.35 1.5 21.5a36.39 36.39 0 0 1-1 5.5z"/><path style="opacity:1" fill="#161109" d="M112.5 143.5c.838.342 1.172 1.008 1 2-2.315 1.084-4.148 2.751-5.5 5-.781-1.444-.614-2.777.5-4 1.761-.535 3.094-1.535 4-3z"/><path style="opacity:1" fill="#3b2d16" d="M97.5 140.5c.698 2.167 2.031 4 4 5.5 4.37-.15 5.703 1.684 4 5.5-1.796-2.4-4.13-4.067-7-5-1.651-1.902-1.984-3.902-1-6z"/></svg>
